packages/foundations/assets/icons/functional/images/editing/pin_14.svg

<svg width="14" height="14" viewBox="0 0 14 14" fill="none" xmlns="http://www.w3.org/2000/svg">
<g clip-path="url(#clip0_2622_102)">
<path fill-rule="evenodd" clip-rule="evenodd" d="M8.39792 1.16834L12.8198 5.53634C12.9538 5.6676 13.0326 5.84513 13.04 6.03257C13.0473 6.22001 12.9827 6.40317 12.8594 6.54454C12.7361 6.68591 12.5635 6.77479 12.3768 6.79298C12.1901 6.81116 12.0035 6.75727 11.8552 6.64234L11.4863 6.28534L9.75032 8.00454C9.91692 8.27614 10.0303 8.56454 10.0884 8.86624C10.2858 9.88124 9.87702 10.8766 9.11262 11.8272C8.8238 12.1913 8.49847 12.5248 8.14172 12.8226C8.01341 12.9265 7.85387 12.9842 7.68878 12.9864C7.5237 12.9885 7.3627 12.9351 7.23172 12.8345L4.68652 10.3236L2.25892 12.7274C2.12604 12.8589 1.94808 12.9348 1.76123 12.9397C1.57439 12.9446 1.3927 12.8781 1.25313 12.7538C1.11356 12.6295 1.02659 12.4566 1.00993 12.2705C0.993262 12.0843 1.04815 11.8988 1.16342 11.7516L3.64142 9.28904L1.17742 6.85094C1.04688 6.72173 0.969447 6.54832 0.960377 6.36486C0.951308 6.18141 1.01126 6.00121 1.12842 5.85975C1.33492 5.60984 1.68142 5.25494 2.13362 4.89864C3.09122 4.14404 4.09222 3.74154 5.10932 3.93474C5.41732 3.99354 5.71132 4.10694 5.98782 4.27494L7.72172 2.55924L7.43332 2.27364C7.29931 2.14239 7.22055 1.96486 7.21319 1.77742C7.20582 1.58998 7.2704 1.40682 7.39369 1.26544C7.51699 1.12407 7.68967 1.0352 7.87637 1.01701C8.06308 0.99883 8.24966 1.05342 8.39792 1.16834ZM8.76682 3.59314L6.56392 5.77364C6.42579 5.90879 6.24022 5.98447 6.04697 5.98447C5.85372 5.98447 5.66815 5.90879 5.53002 5.77364C5.30112 5.54754 5.07502 5.41384 4.83492 5.37884C4.25182 5.29414 3.55042 5.60774 2.73072 6.31964L7.68812 11.2259C8.40702 10.4559 8.72622 9.76295 8.64572 9.14694C8.61912 8.94604 8.51062 8.75494 8.34052 8.56244C8.23412 8.47214 7.75532 8.00454 8.24952 7.42144C8.97762 6.69563 9.7082 5.97229 10.4412 5.25144L8.76682 3.59314Z" fill="#282D37"/>
</g>
<defs>
<clipPath id="clip0_2622_102">
<rect width="14" height="14" fill="white"/>
</clipPath>
</defs>
</svg>

<svg xmlns="http://www.w3.org/2000/svg" width="14" height="14" fill="none"><g clip-path="url(#a)"><path fill="#282D37" fill-rule="evenodd" d="m8.398 1.168 4.422 4.368a.735.735 0 0 1-.965 1.106l-.369-.357-1.736 1.72q.25.408.338.861c.198 1.015-.211 2.01-.975 2.961a7 7 0 0 1-.971.996.735.735 0 0 1-.91.011l-2.545-2.51-2.428 2.403a.735.735 0 0 1-1.096-.975l2.478-2.463-2.464-2.438a.735.735 0 0 1-.049-.991 7 7 0 0 1 1.006-.961c.957-.755 1.958-1.157 2.975-.964q.463.088.879.34l1.734-1.716-.289-.285a.735.735 0 0 1 .965-1.106m.369 2.425-2.203 2.18a.74.74 0 0 1-1.034 0c-.229-.225-.455-.36-.695-.394q-.875-.127-2.104.94l4.957 4.907q1.078-1.155.958-2.08c-.027-.2-.135-.391-.305-.584-.107-.09-.586-.557-.091-1.14q1.092-1.09 2.191-2.17z" clip-rule="evenodd"/></g><defs><clipPath id="a"><path fill="#fff" d="M0 0h14v14H0z"/></clipPath></defs></svg>
